X:25
T:Gan Ainm
R:Reel
S:Johnny McGreevy, Chicago (fiddle)
D:From RTE 'The Pure Drop'
N:As played
M:4/4
Z:Bernie Stocks
K:G
|: ~g2dc BG~G2 | ABcA d2ef | ~g2dc BG~G2 |1 BdcA ~G3f :|2 BdcA ~G3A ||
df~f2 dg~g2 | defd ed^cA | df~f2 dg{a}ge | fdcA ~G3A |
df~f2 dg~g2 | defd ed^cA | dg~g2 bgag | fdcA G2Bd ||
<end>
<start>
